actions/22x22-light/entry-new.svg

<svg height="22" width="22" xmlns="http://www.w3.org/2000/svg"><path d="m3.3847656 2c-.76432 0-1.3847656.6204556-1.3847656 1.3847656v15.2304684c0 .76432.6204456 1.384766 1.3847656 1.384766h15.2304684c.76432 0 1.384766-.620446 1.384766-1.384766v-15.2304684c0-.76431-.620446-1.3847656-1.384766-1.3847656zm6.2011719 3.0019531h2.8300785c-.002994 1.2847345 0 4.6582031 0 4.6582031h4.583984v2.6777348h-4.583984s-.000907 3.372859-.003907 4.662109h-2.8281246c.003-1.28925.0019531-4.662109.0019531-4.662109s-3.0678575.000906-4.5859375.003906v-2.6777345c1.51808-.003 4.5859375-.0019531 4.5859375-.0019531s-.003-3.3767263 0-4.6601563z" fill="#4d4d4d" transform=""/></svg>

<?xml version="1.0" encoding="UTF-8" standalone="no"?>
<!-- Created with Inkscape (http://www.inkscape.org/) -->

<svg
   xmlns:osb="http://www.openswatchbook.org/uri/2009/osb"
   xmlns:dc="http://purl.org/dc/elements/1.1/"
   xmlns:cc="http://creativecommons.org/ns#"
   xmlns:rdf="http://www.w3.org/1999/02/22-rdf-syntax-ns#"
   xmlns:svg="http://www.w3.org/2000/svg"
   xmlns="http://www.w3.org/2000/svg"
   xmlns:sodipodi="http://sodipodi.sourceforge.net/DTD/sodipodi-0.dtd"
   xmlns:inkscape="http://www.inkscape.org/namespaces/inkscape"
   width="22"
   height="22"
   id="svg3869"
   version="1.1"
   inkscape:version="0.91 r13725"
   sodipodi:docname="entry-new.svg">
  <defs
     id="defs3871">
    <inkscape:perspective
       sodipodi:type="inkscape:persp3d"
       inkscape:vp_x="0 : 12 : 1"
       inkscape:vp_y="0 : 1000 : 0"
       inkscape:vp_z="24 : 12 : 1"
       inkscape:persp3d-origin="12 : 8 : 1"
       id="perspective4146" />
    <inkscape:perspective
       sodipodi:type="inkscape:persp3d"
       inkscape:vp_x="0 : 12 : 1"
       inkscape:vp_y="0 : 1000 : 0"
       inkscape:vp_z="24 : 12 : 1"
       inkscape:persp3d-origin="12 : 8 : 1"
       id="perspective4090" />
    <clipPath
       clipPathUnits="userSpaceOnUse"
       id="clipPath16">
      <path
         d="m 0,706.465 1490.926,0 L 1490.926,0 0,0 0,706.465 Z"
         id="path18"
         inkscape:connector-curvature="0" />
    </clipPath>
    <clipPath
       clipPathUnits="userSpaceOnUse"
       id="clipPath24">
      <path
         d="m 22.1953,686.117 1447.7347,0 0,-667.1902 -1447.7347,0 0,667.1902 z"
         id="path26"
         inkscape:connector-curvature="0" />
    </clipPath>
    <clipPath
       clipPathUnits="userSpaceOnUse"
       id="clipPath4534">
      <rect
         ry="15.999986"
         y="8.0000038"
         x="8.0000114"
         height="31.999971"
         width="31.999989"
         id="rect4536"
         style="fill:url(#linearGradient4538);fill-opacity:1;stroke:none" />
    </clipPath>
    <clipPath
       clipPathUnits="userSpaceOnUse"
       id="clipPath4584">
      <rect
         ry="15.999986"
         y="507.798"
         x="392.57144"
         height="31.999971"
         width="31.999989"
         id="rect4586"
         style="fill:url(#linearGradient4588);fill-opacity:1;stroke:none" />
    </clipPath>
    <clipPath
       clipPathUnits="userSpaceOnUse"
       id="clipPath4550">
      <rect
         ry="15.999986"
         y="507.798"
         x="392.57144"
         height="31.999971"
         width="31.999989"
         id="rect4552"
         style="fill:url(#linearGradient4554);fill-opacity:1;stroke:none" />
    </clipPath>
    <clipPath
       clipPathUnits="userSpaceOnUse"
       id="clipPath4568">
      <rect
         ry="15.999986"
         y="507.798"
         x="392.57144"
         height="31.999971"
         width="31.999989"
         id="rect4570"
         style="fill:url(#linearGradient4572);fill-opacity:1;stroke:none" />
    </clipPath>
    <clipPath
       clipPathUnits="userSpaceOnUse"
       id="clipPath4528">
      <rect
         ry="15.999986"
         y="8.0000038"
         x="8.0000114"
         height="31.999971"
         width="31.999989"
         id="rect4530"
         style="fill:url(#linearGradient4532);fill-opacity:1;stroke:none" />
    </clipPath>
    <clipPath
       clipPathUnits="userSpaceOnUse"
       id="clipPath4578">
      <rect
         ry="15.999986"
         y="507.798"
         x="392.57144"
         height="31.999971"
         width="31.999989"
         id="rect4580"
         style="fill:url(#linearGradient4582);fill-opacity:1;stroke:none" />
    </clipPath>
    <clipPath
       clipPathUnits="userSpaceOnUse"
       id="clipPath4562">
      <rect
         ry="15.999986"
         y="507.798"
         x="392.57144"
         height="31.999971"
         width="31.999989"
         id="rect4564"
         style="fill:url(#linearGradient4566);fill-opacity:1;stroke:none" />
    </clipPath>
    <clipPath
       clipPathUnits="userSpaceOnUse"
       id="clipPath4544">
      <rect
         ry="15.999986"
         y="507.798"
         x="392.57144"
         height="31.999971"
         width="31.999989"
         id="rect4546"
         style="fill:url(#linearGradient4548);fill-opacity:1;stroke:none" />
    </clipPath>
    <clipPath
       clipPathUnits="userSpaceOnUse"
       id="clipPath4390">
      <rect
         ry="15.999986"
         y="8.0000038"
         x="8.0000114"
         height="31.999971"
         width="31.999989"
         id="rect4392"
         style="fill:url(#linearGradient4532);fill-opacity:1;stroke:none" />
    </clipPath>
    <clipPath
       clipPathUnits="userSpaceOnUse"
       id="clipPath4407">
      <rect
         ry="15.999986"
         y="507.798"
         x="392.57144"
         height="31.999971"
         width="31.999989"
         id="rect4409"
         style="fill:url(#linearGradient4582);fill-opacity:1;stroke:none" />
    </clipPath>
    <clipPath
       clipPathUnits="userSpaceOnUse"
       id="clipPath4424">
      <rect
         ry="15.999986"
         y="507.798"
         x="392.57144"
         height="31.999971"
         width="31.999989"
         id="rect4426"
         style="fill:url(#linearGradient4566);fill-opacity:1;stroke:none" />
    </clipPath>
    <clipPath
       clipPathUnits="userSpaceOnUse"
       id="clipPath4441">
      <rect
         ry="15.999986"
         y="507.798"
         x="392.57144"
         height="31.999971"
         width="31.999989"
         id="rect4443"
         style="fill:url(#linearGradient4548);fill-opacity:1;stroke:none" />
    </clipPath>
    <clipPath
       id="clipPath4528-1"
       clipPathUnits="userSpaceOnUse">
      <rect
         style="fill:url(#linearGradient4532);fill-opacity:1;stroke:none"
         id="rect4530-7"
         width="31.999989"
         height="31.999971"
         x="8.0000114"
         y="8.0000038"
         ry="15.999986" />
    </clipPath>
    <clipPath
       id="clipPath4578-8"
       clipPathUnits="userSpaceOnUse">
      <rect
         style="fill:url(#linearGradient4582);fill-opacity:1;stroke:none"
         id="rect4580-7"
         width="31.999989"
         height="31.999971"
         x="392.57144"
         y="507.798"
         ry="15.999986" />
    </clipPath>
    <clipPath
       id="clipPath4562-8"
       clipPathUnits="userSpaceOnUse">
      <rect
         style="fill:url(#linearGradient4566);fill-opacity:1;stroke:none"
         id="rect4564-8"
         width="31.999989"
         height="31.999971"
         x="392.57144"
         y="507.798"
         ry="15.999986" />
    </clipPath>
    <clipPath
       id="clipPath4544-1"
       clipPathUnits="userSpaceOnUse">
      <rect
         style="fill:url(#linearGradient4548);fill-opacity:1;stroke:none"
         id="rect4546-1"
         width="31.999989"
         height="31.999971"
         x="392.57144"
         y="507.798"
         ry="15.999986" />
    </clipPath>
    <linearGradient
       osb:paint="gradient"
       id="linearGradient4207">
      <stop
         id="stop3371"
         offset="0"
         style="stop-color:#3498db;stop-opacity:1;" />
      <stop
         id="stop3373"
         offset="1"
         style="stop-color:#3498db;stop-opacity:0;" />
    </linearGradient>
    <linearGradient
       id="linearGradient4066">
      <stop
         id="stop4068"
         style="stop-color:#dbc9ee;stop-opacity:1"
         offset="0" />
      <stop
         id="stop4070"
         style="stop-color:#faf7fd;stop-opacity:1"
         offset="1" />
    </linearGradient>
    <linearGradient
       id="linearGradient3843-5">
      <stop
         offset="0"
         style="stop-color:#5a2c8b;stop-opacity:1"
         id="stop3845-0" />
      <stop
         offset="1"
         style="stop-color:#9d59cf;stop-opacity:1"
         id="stop3847-4" />
    </linearGradient>
    <clipPath
       id="clipPath4160"
       clipPathUnits="userSpaceOnUse">
      <rect
         y="1023.3622"
         x="7"
         height="1"
         width="1"
         id="rect4162"
         style="opacity:1;fill:#f2f2f2;fill-opacity:1;stroke:none;stroke-opacity:1" />
    </clipPath>
    <linearGradient
       id="linearGradient5263">
      <stop
         id="stop5265"
         style="stop-color:#a0d5ff;stop-opacity:1"
         offset="0" />
      <stop
         id="stop5267"
         style="stop-color:#a0d5ff;stop-opacity:1"
         offset="1" />
    </linearGradient>
    <clipPath
       id="clipPath4458">
      <path
         inkscape:connector-curvature="0"
         id="use4460"
         d="m 69.626,12.145 -0.052,0 c -22.727,-0.292 -46.472,4.077 -46.709,4.122 -2.424,0.451 -4.946,2.974 -5.397,5.397 -0.044,0.237 -4.414,23.983 -4.122,46.71 -0.292,22.777 4.078,46.523 4.122,46.761 0.451,2.423 2.974,4.945 5.398,5.398 0.237,0.044 23.982,4.413 46.709,4.121 22.779,0.292 46.524,-4.077 46.761,-4.121 2.423,-0.452 4.946,-2.976 5.398,-5.399 0.044,-0.236 4.413,-23.981 4.121,-46.709 0.292,-22.777 -4.077,-46.523 -4.121,-46.761 -0.453,-2.423 -2.976,-4.946 -5.398,-5.397 -0.238,-0.045 -23.984,-4.414 -46.71,-4.122 z" />
    </clipPath>
    <linearGradient
       id="linearGradient4237">
      <stop
         id="stop4239"
         style="stop-color:#ff594d;stop-opacity:1"
         offset="0" />
      <stop
         id="stop4241"
         style="stop-color:#ff7f76;stop-opacity:1"
         offset="1" />
    </linearGradient>
    <linearGradient
       id="linearGradient4210">
      <stop
         offset="0"
         style="stop-color:#ff584c;stop-opacity:1"
         id="stop4212" />
      <stop
         offset="1"
         style="stop-color:#ff8077;stop-opacity:1"
         id="stop4214" />
    </linearGradient>
    <linearGradient
       id="linearGradient4179">
      <stop
         id="stop4181"
         style="stop-color:#ffee5e;stop-opacity:1"
         offset="0" />
      <stop
         id="stop4183"
         style="stop-color:#feff8b;stop-opacity:1"
         offset="1" />
    </linearGradient>
    <linearGradient
       id="linearGradient4210-3">
      <stop
         id="stop4212-1"
         style="stop-color:#ffce69;stop-opacity:1"
         offset="0" />
      <stop
         id="stop4214-6"
         style="stop-color:#ffce54;stop-opacity:1"
         offset="1" />
    </linearGradient>
    <linearGradient
       id="linearGradient4237-0">
      <stop
         offset="0"
         style="stop-color:#ffee5e;stop-opacity:1"
         id="stop4239-8" />
      <stop
         offset="1"
         style="stop-color:#feff9f;stop-opacity:1"
         id="stop4241-9" />
    </linearGradient>
    <linearGradient
       id="linearGradient4237-2">
      <stop
         offset="0"
         style="stop-color:#ffa0a6;stop-opacity:1"
         id="stop4239-7" />
      <stop
         offset="1"
         style="stop-color:#ffa0a5;stop-opacity:1"
         id="stop4241-2" />
    </linearGradient>
    <linearGradient
       id="linearGradient8311">
      <stop
         id="stop8313"
         style="stop-color:#ce89ff;stop-opacity:1"
         offset="0" />
      <stop
         id="stop8315"
         style="stop-color:#e898ff;stop-opacity:1"
         offset="1" />
    </linearGradient>
    <linearGradient
       id="linearGradient4237-8">
      <stop
         offset="0"
         style="stop-color:#cf8aff;stop-opacity:1"
         id="stop4239-2" />
      <stop
         offset="1"
         style="stop-color:#eaa0ff;stop-opacity:1"
         id="stop4241-3" />
    </linearGradient>
    <linearGradient
       id="linearGradient8311-3">
      <stop
         id="stop8313-0"
         style="stop-color:#ffcc6b;stop-opacity:1"
         offset="0" />
      <stop
         id="stop8315-1"
         style="stop-color:#ffcf98;stop-opacity:1"
         offset="1" />
    </linearGradient>
    <linearGradient
       id="linearGradient4237-3">
      <stop
         offset="0"
         style="stop-color:#ffcc6e;stop-opacity:1"
         id="stop4239-0" />
      <stop
         offset="1"
         style="stop-color:#ffe4a0;stop-opacity:1"
         id="stop4241-7" />
    </linearGradient>
    <linearGradient
       id="linearGradient8311-31">
      <stop
         id="stop8313-2"
         style="stop-color:#f089ff;stop-opacity:1"
         offset="0" />
      <stop
         id="stop8315-6"
         style="stop-color:#ffadea;stop-opacity:1"
         offset="1" />
    </linearGradient>
    <linearGradient
       id="linearGradient4237-6">
      <stop
         offset="0"
         style="stop-color:#f18bfe;stop-opacity:1"
         id="stop4239-22" />
      <stop
         offset="1"
         style="stop-color:#fcc3ff;stop-opacity:1"
         id="stop4241-0" />
    </linearGradient>
    <linearGradient
       id="linearGradient8467">
      <stop
         offset="0"
         style="stop-color:#b9b9b9;stop-opacity:1"
         id="stop8469" />
      <stop
         offset="1"
         style="stop-color:#d1d1d1;stop-opacity:1"
         id="stop8471" />
    </linearGradient>
    <linearGradient
       id="linearGradient8311-5">
      <stop
         id="stop8313-7"
         style="stop-color:#b9b9b9;stop-opacity:1"
         offset="0" />
      <stop
         id="stop8315-3"
         style="stop-color:#d2d2d2;stop-opacity:1"
         offset="1" />
    </linearGradient>
    <linearGradient
       id="linearGradient4237-4">
      <stop
         offset="0"
         style="stop-color:#bababa;stop-opacity:1"
         id="stop4239-9" />
      <stop
         offset="1"
         style="stop-color:#c8c8c8;stop-opacity:1"
         id="stop4241-37" />
    </linearGradient>
    <linearGradient
       id="linearGradient8467-7">
      <stop
         offset="0"
         style="stop-color:#3ec896;stop-opacity:1"
         id="stop8469-4" />
      <stop
         offset="1"
         style="stop-color:#66d9af;stop-opacity:1"
         id="stop8471-7" />
    </linearGradient>
    <linearGradient
       id="linearGradient8311-1">
      <stop
         id="stop8313-9"
         style="stop-color:#494949;stop-opacity:1"
         offset="0" />
      <stop
         id="stop8315-5"
         style="stop-color:#616774;stop-opacity:1"
         offset="1" />
    </linearGradient>
    <linearGradient
       gradientUnits="userSpaceOnUse"
       gradientTransform="scale(1.1288018,0.8858951)"
       x1="209.95714"
       y1="0"
       x2="209.95714"
       y2="116.69431"
       id="linearGradient-1">
      <stop
         stop-color="#A7A7A7"
         offset="0%"
         id="stop4884" />
      <stop
         stop-color="#8D8D8D"
         offset="100%"
         id="stop4886" />
    </linearGradient>
    <linearGradient
       gradientUnits="userSpaceOnUse"
       gradientTransform="scale(1.2279807,0.81434507)"
       x1="192.9998"
       y1="411.58423"
       x2="192.9998"
       y2="105.40025"
       id="linearGradient-2">
      <stop
         stop-color="#707070"
         offset="0%"
         id="stop4889" />
      <stop
         stop-color="#ABABAB"
         offset="100%"
         id="stop4891" />
    </linearGradient>
    <linearGradient
       gradientUnits="userSpaceOnUse"
       gradientTransform="scale(1.2279807,0.81434507)"
       x1="192.99979"
       y1="70.608887"
       x2="192.99979"
       y2="457.42279"
       id="linearGradient-3">
      <stop
         stop-color="#000000"
         stop-opacity="0"
         offset="0%"
         id="stop4894" />
      <stop
         stop-color="#000000"
         stop-opacity="0.19"
         offset="100%"
         id="stop4896" />
    </linearGradient>
    <linearGradient
       id="linearGradient4232">
      <stop
         id="stop4234"
         offset="0"
         style="stop-color:#333333;stop-opacity:1" />
      <stop
         id="stop4236"
         offset="1"
         style="stop-color:#353535;stop-opacity:1" />
    </linearGradient>
    <linearGradient
       id="linearGradient4172">
      <stop
         style="stop-color:#3dc796;stop-opacity:1"
         offset="0"
         id="stop4174" />
      <stop
         style="stop-color:#57d68d;stop-opacity:1"
         offset="1"
         id="stop4176" />
    </linearGradient>
    <linearGradient
       id="linearGradient4233">
      <stop
         id="stop4235"
         offset="0"
         style="stop-color:#212121;stop-opacity:1" />
      <stop
         id="stop4237"
         offset="1"
         style="stop-color:#1d2022;stop-opacity:0" />
    </linearGradient>
    <linearGradient
       id="linearGradient8467-6">
      <stop
         offset="0"
         style="stop-color:#56d8d1;stop-opacity:1"
         id="stop8469-5" />
      <stop
         offset="1"
         style="stop-color:#9df7ee;stop-opacity:1"
         id="stop8471-8" />
    </linearGradient>
    <linearGradient
       id="linearGradient8311-10">
      <stop
         id="stop8313-3"
         style="stop-color:#55d8d1;stop-opacity:1"
         offset="0" />
      <stop
         id="stop8315-8"
         style="stop-color:#66efe7;stop-opacity:1"
         offset="1" />
    </linearGradient>
    <linearGradient
       id="linearGradient8467-8">
      <stop
         offset="0"
         style="stop-color:#dea679;stop-opacity:1"
         id="stop8469-9" />
      <stop
         offset="1"
         style="stop-color:#f7d19d;stop-opacity:1"
         id="stop8471-2" />
    </linearGradient>
    <linearGradient
       id="linearGradient8311-0">
      <stop
         id="stop8313-90"
         style="stop-color:#dda579;stop-opacity:1"
         offset="0" />
      <stop
         id="stop8315-88"
         style="stop-color:#f3bc87;stop-opacity:1"
         offset="1" />
    </linearGradient>
    <linearGradient
       id="linearGradient8467-2">
      <stop
         offset="0"
         style="stop-color:#5fa4d5;stop-opacity:1"
         id="stop8469-6" />
      <stop
         offset="1"
         style="stop-color:#9dc9f7;stop-opacity:1"
         id="stop8471-5" />
    </linearGradient>
    <linearGradient
       id="linearGradient8311-06">
      <stop
         id="stop8313-6"
         style="stop-color:#5fa3d4;stop-opacity:1"
         offset="0" />
      <stop
         id="stop8315-2"
         style="stop-color:#6bb9ff;stop-opacity:1"
         offset="1" />
    </linearGradient>
  </defs>
  <sodipodi:namedview
     id="base"
     pagecolor="#ffffff"
     bordercolor="#666666"
     borderopacity="1.0"
     inkscape:pageopacity="0.0"
     inkscape:pageshadow="2"
     inkscape:zoom="15.999999"
     inkscape:cx="-2.5639137"
     inkscape:cy="4.0329037"
     inkscape:document-units="px"
     inkscape:current-layer="layer1"
     showgrid="true"
     fit-margin-top="0"
     fit-margin-left="0"
     fit-margin-right="0"
     fit-margin-bottom="0"
     inkscape:window-width="1366"
     inkscape:window-height="630"
     inkscape:window-x="0"
     inkscape:window-y="36"
     inkscape:window-maximized="1"
     inkscape:showpageshadow="false"
     inkscape:object-nodes="true"
     inkscape:snap-bbox="true"
     showguides="false">
    <inkscape:grid
       type="xygrid"
       id="grid4132"
       visible="false"
       enabled="false" />
    <sodipodi:guide
       position="4,18"
       orientation="18,0"
       id="guide4138" />
    <sodipodi:guide
       position="5,3"
       orientation="0,18"
       id="guide4140" />
    <sodipodi:guide
       position="20,2.0000174"
       orientation="-18,0"
       id="guide4142" />
    <sodipodi:guide
       position="2,21"
       orientation="0,-18"
       id="guide4144" />
    <sodipodi:guide
       position="3,19.000017"
       orientation="16,0"
       id="guide4146" />
    <sodipodi:guide
       position="2,4"
       orientation="0,16"
       id="guide4148" />
    <sodipodi:guide
       position="21,20"
       orientation="-16,0"
       id="guide4150" />
    <sodipodi:guide
       position="2,20"
       orientation="0,-16"
       id="guide4152" />
  </sodipodi:namedview>
  <metadata
     id="metadata3874">
    <rdf:RDF>
      <cc:Work
         rdf:about="">
        <dc:format>image/svg+xml</dc:format>
        <dc:type
           rdf:resource="http://purl.org/dc/dcmitype/StillImage" />
        <dc:title></dc:title>
      </cc:Work>
    </rdf:RDF>
  </metadata>
  <g
     inkscape:label="Layer 1"
     inkscape:groupmode="layer"
     id="layer1"
     transform="translate(-326,-534.3622)">
    <path
       style="fill:#4d4d4d;fill-opacity:1"
       d="M 3.3847656 2 C 2.6204456 2 2 2.6204556 2 3.3847656 L 2 18.615234 C 2 19.379554 2.6204456 20 3.3847656 20 L 18.615234 20 C 19.379554 20 20 19.379554 20 18.615234 L 20 3.3847656 C 20 2.6204556 19.379554 2 18.615234 2 L 3.3847656 2 z M 9.5859375 5.0019531 L 12.416016 5.0019531 C 12.413022 6.2866876 12.416016 9.6601562 12.416016 9.6601562 L 17 9.6601562 L 17 12.337891 L 12.416016 12.337891 C 12.416016 12.337891 12.415109 15.71075 12.412109 17 L 9.5839844 17 C 9.5869844 15.71075 9.5859375 12.337891 9.5859375 12.337891 C 9.5859375 12.337891 6.51808 12.338797 5 12.341797 L 5 9.6640625 C 6.51808 9.6610625 9.5859375 9.6621094 9.5859375 9.6621094 C 9.5859375 9.6621094 9.5829375 6.2853831 9.5859375 5.0019531 z "
       transform="translate(326,534.3622)"
       id="path3379" />
  </g>
</svg>
